X: 65
T:Gilderoy
% Nottingham Music Database
S:via PR
M:4/4
L:1/4
K:Am
E|"Am"AA/2B/2 c/2B/2c/2d/2|"Am"e/2f/2e/2c/2 "G"dc/2d/2|\
"Am"e/2d/2c/2B/2 A/2B/2c/2A/2|"E7"B/2^G/2E/2E/2 EE/2G/2|
"Am"A/2^G/2A/2B/2 c/2B/2c/2d/2|"Am"e/2f/2e/2c/2 "G"dc/2d/2|\
"Am"e/2a/2^g/2a/2 "E7"e/2d/2c/2B/2|"Am"cA A::
e/2f/2|"C"gg/2a/2 g/2f/2e/2f/2|"C"g/2f/2e/2c/2 "G"dc/2d/2|\
"Am"e/2d/2c/2B/2 A/2B/2c/2A/2|"E7"B/2^G/2E/2E/2 EE/2G/2|
"Am"A/2^G/2A/2B/2 c/2B/2c/2d/2|"Am"e/2f/2e/2c/2 "G"dc/2d/2|\
"Am"e/2a/2^g/2a/2 "E7"e/2d/2c/2B/2|"Am"cA A:|<end>
<start>
